images/63009.svg

<?xml version="1.0" encoding="UTF-8"?>
<svg xmlns="http://www.w3.org/2000/svg" xmlns:xlink="http://www.w3.org/1999/xlink" width="300pt" height="300pt" viewBox="0 0 300 300" version="1.1">
<defs>
<g>
<symbol overflow="visible" id="glyph0-0">
<path style="stroke:none;" d="M 0.59375 2.125 L 0.59375 -8.46875 L 6.59375 -8.46875 L 6.59375 2.125 Z M 1.265625 1.453125 L 5.9375 1.453125 L 5.9375 -7.78125 L 1.265625 -7.78125 Z M 1.265625 1.453125 "/>
</symbol>
<symbol overflow="visible" id="glyph0-1">
<path style="stroke:none;" d="M 1.171875 -8.75 L 2.765625 -8.75 L 6.65625 -1.4375 L 6.65625 -8.75 L 7.796875 -8.75 L 7.796875 0 L 6.203125 0 L 2.328125 -7.3125 L 2.328125 0 L 1.171875 0 Z M 1.171875 -8.75 "/>
</symbol>
<symbol overflow="visible" id="glyph0-2">
<path style="stroke:none;" d="M 1.171875 -8.75 L 2.359375 -8.75 L 2.359375 -5.15625 L 6.65625 -5.15625 L 6.65625 -8.75 L 7.84375 -8.75 L 7.84375 0 L 6.65625 0 L 6.65625 -4.171875 L 2.359375 -4.171875 L 2.359375 0 L 1.171875 0 Z M 1.171875 -8.75 "/>
</symbol>
<symbol overflow="visible" id="glyph0-3">
<path style="stroke:none;" d="M 7.734375 -8.078125 L 7.734375 -6.828125 C 7.328125 -7.203125 6.898438 -7.476562 6.453125 -7.65625 C 6.003906 -7.84375 5.523438 -7.9375 5.015625 -7.9375 C 4.015625 -7.9375 3.25 -7.628906 2.71875 -7.015625 C 2.1875 -6.398438 1.921875 -5.515625 1.921875 -4.359375 C 1.921875 -3.210938 2.1875 -2.332031 2.71875 -1.71875 C 3.25 -1.101562 4.015625 -0.796875 5.015625 -0.796875 C 5.523438 -0.796875 6.003906 -0.890625 6.453125 -1.078125 C 6.898438 -1.265625 7.328125 -1.539062 7.734375 -1.90625 L 7.734375 -0.671875 C 7.316406 -0.390625 6.875 -0.175781 6.40625 -0.03125 C 5.945312 0.101562 5.460938 0.171875 4.953125 0.171875 C 3.617188 0.171875 2.570312 -0.234375 1.8125 -1.046875 C 1.050781 -1.859375 0.671875 -2.960938 0.671875 -4.359375 C 0.671875 -5.765625 1.050781 -6.875 1.8125 -7.6875 C 2.570312 -8.5 3.617188 -8.90625 4.953125 -8.90625 C 5.472656 -8.90625 5.960938 -8.832031 6.421875 -8.6875 C 6.890625 -8.550781 7.328125 -8.347656 7.734375 -8.078125 Z M 7.734375 -8.078125 "/>
</symbol>
<symbol overflow="visible" id="glyph0-4">
<path style="stroke:none;" d="M 1.125 -9.125 L 2.203125 -9.125 L 2.203125 0 L 1.125 0 Z M 1.125 -9.125 "/>
</symbol>
</g>
</defs>
<g id="surface33493">
<rect x="0" y="0" width="300" height="300" style="fill:rgb(100%,100%,100%);fill-opacity:1;stroke:none;"/>
<path style="fill:none;stroke-width:1.2;stroke-linecap:butt;stroke-linejoin:miter;stroke:rgb(0%,0%,0%);stroke-opacity:1;stroke-miterlimit:10;" d="M 264.75 97.84375 L 259.417969 112.816406 "/>
<path style="fill:none;stroke-width:1.2;stroke-linecap:butt;stroke-linejoin:miter;stroke:rgb(0%,0%,100%);stroke-opacity:1;stroke-miterlimit:10;" d="M 259.417969 112.816406 L 254.085938 127.785156 "/>
<path style="fill:none;stroke-width:1;stroke-linecap:butt;stroke-linejoin:miter;stroke:rgb(0%,0%,0%);stroke-opacity:1;stroke-miterlimit:10;" d="M 222.824219 133.519531 L 222.824219 133.519531 M 225.824219 133.5 L 225.632812 132.476562 M 228.824219 133.480469 L 228.445312 131.429688 M 231.824219 133.460938 L 231.257812 130.382812 M 234.824219 133.441406 L 234.070312 129.335938 M 237.824219 133.417969 L 236.882812 128.292969 M 240.824219 133.398438 L 239.695312 127.246094 M 243.824219 133.378906 L 242.503906 126.199219 M 246.820312 133.359375 L 245.316406 125.15625 M 249.820312 133.339844 L 248.128906 124.109375 M 252.820312 133.320312 L 250.941406 123.0625 M 255.097656 133.304688 L 253.074219 122.269531 "/>
<path style=" stroke:none;fill-rule:nonzero;fill:rgb(100%,100%,100%);fill-opacity:1;" d="M 245.085938 120.785156 L 263.085938 120.785156 L 263.085938 134.785156 L 245.085938 134.785156 Z M 245.085938 120.785156 "/>
<g style="fill:rgb(0%,0%,100%);fill-opacity:1;">
  <use xlink:href="#glyph0-1" x="245.085938" y="131.923828"/>
  <use xlink:href="#glyph0-2" x="254.0625" y="131.923828"/>
</g>
<path style="fill:none;stroke-width:1.2;stroke-linecap:butt;stroke-linejoin:miter;stroke:rgb(0%,0%,0%);stroke-opacity:1;stroke-miterlimit:10;" d="M 222.824219 133.519531 L 202.226562 109.3125 "/>
<path style="fill:none;stroke-width:1.2;stroke-linecap:butt;stroke-linejoin:miter;stroke:rgb(0%,0%,0%);stroke-opacity:1;stroke-miterlimit:10;" d="M 212.15625 163.460938 L 222.824219 133.519531 "/>
<path style="fill:none;stroke-width:1.2;stroke-linecap:butt;stroke-linejoin:miter;stroke:rgb(0%,0%,0%);stroke-opacity:1;stroke-miterlimit:10;" d="M 202.226562 109.3125 L 170.964844 115.046875 "/>
<path style="fill:none;stroke-width:1.2;stroke-linecap:butt;stroke-linejoin:miter;stroke:rgb(0%,0%,0%);stroke-opacity:1;stroke-miterlimit:10;" d="M 170.964844 115.046875 L 160.296875 144.988281 "/>
<path style="fill:none;stroke-width:1.2;stroke-linecap:butt;stroke-linejoin:miter;stroke:rgb(0%,0%,0%);stroke-opacity:1;stroke-miterlimit:10;" d="M 160.296875 144.988281 L 180.894531 169.195312 "/>
<path style="fill:none;stroke-width:1;stroke-linecap:butt;stroke-linejoin:miter;stroke:rgb(0%,0%,0%);stroke-opacity:1;stroke-miterlimit:10;" d="M 160.296875 144.988281 L 160.296875 144.988281 M 157.296875 145.007812 L 157.488281 146.035156 M 154.296875 145.03125 L 154.675781 147.082031 M 151.296875 145.050781 L 151.863281 148.125 M 148.296875 145.070312 L 149.050781 149.171875 M 145.300781 145.089844 L 146.238281 150.21875 M 142.300781 145.109375 L 143.425781 151.265625 M 139.300781 145.128906 L 140.617188 152.308594 M 136.300781 145.152344 L 137.804688 153.355469 M 133.300781 145.171875 L 134.992188 154.402344 M 130.300781 145.191406 L 132.179688 155.445312 M 128.023438 145.207031 L 130.046875 156.238281 "/>
<path style="fill:none;stroke-width:1.2;stroke-linecap:butt;stroke-linejoin:miter;stroke:rgb(0%,0%,0%);stroke-opacity:1;stroke-miterlimit:10;" d="M 180.894531 169.195312 L 170.230469 199.136719 "/>
<path style="fill:none;stroke-width:1.2;stroke-linecap:butt;stroke-linejoin:miter;stroke:rgb(0%,0%,0%);stroke-opacity:1;stroke-miterlimit:10;" d="M 186.875 174.699219 L 178.34375 198.652344 "/>
<path style="fill:none;stroke-width:1.2;stroke-linecap:butt;stroke-linejoin:miter;stroke:rgb(0%,0%,0%);stroke-opacity:1;stroke-miterlimit:10;" d="M 212.15625 163.460938 L 180.894531 169.195312 "/>
<path style="fill:none;stroke-width:1.2;stroke-linecap:butt;stroke-linejoin:miter;stroke:rgb(0%,0%,0%);stroke-opacity:1;stroke-miterlimit:10;" d="M 170.230469 199.136719 L 190.828125 223.34375 "/>
<path style="fill:none;stroke-width:1.2;stroke-linecap:butt;stroke-linejoin:miter;stroke:rgb(0%,0%,0%);stroke-opacity:1;stroke-miterlimit:10;" d="M 190.828125 223.34375 L 222.089844 217.609375 "/>
<path style="fill:none;stroke-width:1.2;stroke-linecap:butt;stroke-linejoin:miter;stroke:rgb(0%,0%,0%);stroke-opacity:1;stroke-miterlimit:10;" d="M 192.605469 215.414062 L 217.613281 210.828125 "/>
<path style="fill:none;stroke-width:1.2;stroke-linecap:butt;stroke-linejoin:miter;stroke:rgb(0%,0%,0%);stroke-opacity:1;stroke-miterlimit:10;" d="M 222.089844 217.609375 L 232.753906 187.667969 "/>
<path style="fill:none;stroke-width:1.2;stroke-linecap:butt;stroke-linejoin:miter;stroke:rgb(0%,0%,0%);stroke-opacity:1;stroke-miterlimit:10;" d="M 232.753906 187.667969 L 212.15625 163.460938 "/>
<path style="fill:none;stroke-width:1.2;stroke-linecap:butt;stroke-linejoin:miter;stroke:rgb(0%,0%,0%);stroke-opacity:1;stroke-miterlimit:10;" d="M 225 190.09375 L 208.523438 170.730469 "/>
<path style="fill:none;stroke-width:1.2;stroke-linecap:butt;stroke-linejoin:miter;stroke:rgb(0%,0%,0%);stroke-opacity:1;stroke-miterlimit:10;" d="M 129.035156 150.722656 L 108.4375 126.515625 "/>
<path style="fill:none;stroke-width:1.2;stroke-linecap:butt;stroke-linejoin:miter;stroke:rgb(0%,0%,0%);stroke-opacity:1;stroke-miterlimit:10;" d="M 121.28125 153.148438 L 104.804688 133.785156 "/>
<path style="fill:none;stroke-width:1.2;stroke-linecap:butt;stroke-linejoin:miter;stroke:rgb(0%,0%,0%);stroke-opacity:1;stroke-miterlimit:10;" d="M 118.371094 180.664062 L 129.035156 150.722656 "/>
<path style="fill:none;stroke-width:1.2;stroke-linecap:butt;stroke-linejoin:miter;stroke:rgb(0%,0%,0%);stroke-opacity:1;stroke-miterlimit:10;" d="M 108.4375 126.515625 L 77.175781 132.25 "/>
<path style="fill:none;stroke-width:1.2;stroke-linecap:butt;stroke-linejoin:miter;stroke:rgb(0%,0%,0%);stroke-opacity:1;stroke-miterlimit:10;" d="M 77.175781 132.25 L 66.511719 162.191406 "/>
<path style="fill:none;stroke-width:1.2;stroke-linecap:butt;stroke-linejoin:miter;stroke:rgb(0%,0%,0%);stroke-opacity:1;stroke-miterlimit:10;" d="M 83.15625 137.753906 L 74.625 161.707031 "/>
<path style="fill:none;stroke-width:1.2;stroke-linecap:butt;stroke-linejoin:miter;stroke:rgb(0%,0%,0%);stroke-opacity:1;stroke-miterlimit:10;" d="M 77.175781 132.25 L 66.878906 120.148438 "/>
<path style="fill:none;stroke-width:1.2;stroke-linecap:butt;stroke-linejoin:miter;stroke:rgb(0%,80%,0%);stroke-opacity:1;stroke-miterlimit:10;" d="M 66.878906 120.148438 L 56.582031 108.042969 "/>
<path style="fill:none;stroke-width:1.2;stroke-linecap:butt;stroke-linejoin:miter;stroke:rgb(0%,0%,0%);stroke-opacity:1;stroke-miterlimit:10;" d="M 66.511719 162.191406 L 87.109375 186.398438 "/>
<path style="fill:none;stroke-width:1.2;stroke-linecap:butt;stroke-linejoin:miter;stroke:rgb(0%,0%,0%);stroke-opacity:1;stroke-miterlimit:10;" d="M 66.511719 162.191406 L 50.882812 165.058594 "/>
<path style="fill:none;stroke-width:1.2;stroke-linecap:butt;stroke-linejoin:miter;stroke:rgb(0%,80%,0%);stroke-opacity:1;stroke-miterlimit:10;" d="M 50.882812 165.058594 L 35.25 167.925781 "/>
<path style="fill:none;stroke-width:1.2;stroke-linecap:butt;stroke-linejoin:miter;stroke:rgb(0%,0%,0%);stroke-opacity:1;stroke-miterlimit:10;" d="M 87.109375 186.398438 L 118.371094 180.664062 "/>
<path style="fill:none;stroke-width:1.2;stroke-linecap:butt;stroke-linejoin:miter;stroke:rgb(0%,0%,0%);stroke-opacity:1;stroke-miterlimit:10;" d="M 88.886719 178.46875 L 113.894531 173.882812 "/>
<path style=" stroke:none;fill-rule:nonzero;fill:rgb(100%,100%,100%);fill-opacity:1;" d="M 23.25 160.925781 L 35.25 160.925781 L 35.25 174.925781 L 23.25 174.925781 Z M 23.25 160.925781 "/>
<g style="fill:rgb(0%,80%,0%);fill-opacity:1;">
  <use xlink:href="#glyph0-3" x="23.25" y="172.064453"/>
  <use xlink:href="#glyph0-4" x="31.628906" y="172.064453"/>
</g>
<path style=" stroke:none;fill-rule:nonzero;fill:rgb(100%,100%,100%);fill-opacity:1;" d="M 44.582031 101.042969 L 56.582031 101.042969 L 56.582031 115.042969 L 44.582031 115.042969 Z M 44.582031 101.042969 "/>
<g style="fill:rgb(0%,80%,0%);fill-opacity:1;">
  <use xlink:href="#glyph0-3" x="44.582031" y="112.181641"/>
  <use xlink:href="#glyph0-4" x="52.960938" y="112.181641"/>
</g>
<path style=" stroke:none;fill-rule:nonzero;fill:rgb(100%,100%,100%);fill-opacity:1;" d="M 148.128906 69.65625 L 169.128906 69.65625 L 169.128906 83.65625 L 148.128906 83.65625 Z M 148.128906 69.65625 "/>
<g style="fill:rgb(0%,80%,0%);fill-opacity:1;">
  <use xlink:href="#glyph0-3" x="148.128906" y="80.794922"/>
  <use xlink:href="#glyph0-4" x="156.507812" y="80.794922"/>
  <use xlink:href="#glyph0-2" x="159.841797" y="80.794922"/>
</g>
</g>
</svg>

<svg xmlns="http://www.w3.org/2000/svg" xmlns:xlink="http://www.w3.org/1999/xlink" width="300pt" height="300pt" viewBox="0 0 300 300"><defs><symbol overflow="visible"><path d="M.594 2.125V-8.47h6V2.126zm.672-.672h4.671V-7.78h-4.67zm0 0"/></symbol><symbol overflow="visible" id="a"><path d="M1.172-8.75h1.594l3.89 7.313V-8.75h1.14V0H6.204L2.328-7.313V0H1.172zm0 0"/></symbol><symbol overflow="visible" id="b"><path d="M1.172-8.75H2.36v3.594h4.296V-8.75h1.188V0H6.656v-4.172H2.36V0H1.17zm0 0"/></symbol><symbol overflow="visible" id="c"><path d="M7.734-8.078v1.25c-.406-.375-.836-.65-1.28-.828-.45-.188-.93-.282-1.438-.282-1 0-1.766.31-2.297.922-.533.618-.798 1.5-.798 2.657 0 1.15.266 2.028.797 2.64.53.618 1.296.923 2.296.923.507 0 .988-.094 1.437-.28.445-.19.875-.462 1.28-.83V-.67c-.417.28-.858.496-1.327.64-.46.134-.945.204-1.453.204-1.336 0-2.383-.406-3.14-1.22-.762-.81-1.14-1.913-1.14-3.31 0-1.408.378-2.517 1.14-3.33.757-.812 1.804-1.218 3.14-1.218.52 0 1.008.074 1.47.22.468.135.905.338 1.31.608zm0 0"/></symbol><symbol overflow="visible" id="d"><path d="M1.125-9.125h1.078V0H1.125zm0 0"/></symbol></defs><g><path fill="#fff" d="M0 0h300v300H0z"/><path d="M264.75 97.844l-5.332 14.972" stroke-width="1.2" stroke="#000" stroke-miterlimit="10" fill="none"/><path d="M259.418 112.816l-5.332 14.97" stroke-width="1.2" stroke="#00f" stroke-miterlimit="10" fill="none"/><path d="M222.824 133.52m3-.02l-.19-1.023m3.19 1.003l-.38-2.05m3.38 2.03l-.566-3.077m3.566 3.058l-.754-4.104m3.754 4.082l-.94-5.125m3.94 5.105l-1.13-6.152m4.13 6.133l-1.32-7.18m4.316 7.16l-1.504-8.204m4.504 8.184l-1.69-9.23m4.69 9.21l-1.88-10.257m4.158 10.242l-2.024-11.035" stroke="#000" stroke-miterlimit="10" fill="none"/><path d="M245.086 120.785h18v14h-18zm0 0" fill="#fff"/><g fill="#00f"><use xlink:href="#a" x="245.086" y="131.924"/><use xlink:href="#b" x="254.063" y="131.924"/></g><path d="M222.824 133.52l-20.597-24.208M212.156 163.46l10.668-29.94M202.227 109.313l-31.262 5.734M170.965 115.047l-10.668 29.94M160.297 144.988l20.598 24.207" stroke-width="1.2" stroke="#000" stroke-miterlimit="10" fill="none"/><path d="M160.297 144.988m-3 .02l.19 1.027m-3.19-1.004l.38 2.052m-3.38-2.03l.566 3.073m-3.566-3.055l.754 4.102m-3.75-4.082l.938 5.13m-3.937-5.11l1.126 6.156m-4.125-6.137l1.317 7.18m-4.316-7.158l1.505 8.203m-4.504-8.183l1.692 9.23m-4.69-9.21l1.878 10.253m-4.157-10.238l2.024 11.03" stroke="#000" stroke-miterlimit="10" fill="none"/><path d="M180.895 169.195l-10.665 29.942M186.875 174.7l-8.53 23.952M212.156 163.46l-31.26 5.735M170.23 199.137l20.598 24.207M190.828 223.344l31.262-5.735M192.605 215.414l25.008-4.586M222.09 217.61l10.664-29.942M232.754 187.668l-20.598-24.207M225 190.094l-16.477-19.364M129.035 150.723l-20.597-24.207M121.28 153.148l-16.475-19.363M118.37 180.664l10.665-29.94M108.438 126.516l-31.262 5.734M77.176 132.25l-10.664 29.94M83.156 137.754l-8.53 23.953M77.176 132.25L66.88 120.148" stroke-width="1.2" stroke="#000" stroke-miterlimit="10" fill="none"/><path d="M66.88 120.148L56.58 108.043" stroke-width="1.2" stroke="#0c0" stroke-miterlimit="10" fill="none"/><path d="M66.512 162.19L87.11 186.4M66.512 162.19l-15.63 2.87" stroke-width="1.2" stroke="#000" stroke-miterlimit="10" fill="none"/><path d="M50.883 165.06l-15.633 2.866" stroke-width="1.2" stroke="#0c0" stroke-miterlimit="10" fill="none"/><path d="M87.11 186.398l31.26-5.734M88.887 178.47l25.008-4.587" stroke-width="1.2" stroke="#000" stroke-miterlimit="10" fill="none"/><path d="M23.25 160.926h12v14h-12zm0 0" fill="#fff"/><g fill="#0c0"><use xlink:href="#c" x="23.25" y="172.064"/><use xlink:href="#d" x="31.629" y="172.064"/></g><path d="M44.582 101.043h12v14h-12zm0 0" fill="#fff"/><g fill="#0c0"><use xlink:href="#c" x="44.582" y="112.182"/><use xlink:href="#d" x="52.961" y="112.182"/></g><path d="M148.13 69.656h21v14h-21zm0 0" fill="#fff"/><g fill="#0c0"><use xlink:href="#c" x="148.129" y="80.795"/><use xlink:href="#d" x="156.508" y="80.795"/><use xlink:href="#b" x="159.842" y="80.795"/></g></g></svg>
